svg/duckduckgo-light.svg

<svg xmlns="http://www.w3.org/2000/svg" xml:space="preserve" viewBox="0 0 512 512"><path d="M162.7 190.4s-6.3-14.1 10.5-21c16.9-6.8 25.1 4 25.1 4s-12.2-5.5-24.2 1.9c-11.9 7.5-11.4 15.1-11.4 15.1m14.7 30.1c0-9 7.3-16.2 16.2-16.2 9 0 16.2 7.3 16.2 16.2 0 9-7.3 16.2-16.2 16.2-8.9.1-16.1-7.2-16.2-16.2m19.3-5.4c0 2.3 1.9 4.2 4.2 4.2s4.2-1.9 4.2-4.2-1.9-4.2-4.2-4.2-4.2 1.9-4.2 4.2m104.5 240.5c2.9 5.6 6 11.6 9.2 17.7 9-2.2 17.7-5 26.2-8.3-5.4-.1-15.3-2.1-35.4-9.4M256 32C132.3 32 32 132.3 32 256c0 98.6 63.8 182.4 152.4 212.3-12.7-60.9-43.2-202.1-50.4-242.7-7.8-43.4 5.2-79.5 34.6-95 1-.5 2.2-1 3.4-1.5.3-.1.5-.3.8-.4 10.2-5.3 24.5-9.1 40-10.9-1.3.1-2.7.3-4 .5-19.5-5.9-46.4-7.1-64.5-5.3 0-3 2.8-9.4 6.5-11.1 1.4-.6 3-1 4.6-1.2 4.5-1.8 10.4-2.6 14.1-4.5-.4.2-.9.4-1.4.6-7.5-3-19.6-8.7-22.9-9 3.2-.6 5.4-2.2 9.9-2.5 25.9-4.1 53.6.8 76.1 12.8 12.3 6.5 20.9 13.5 26.3 20.9 13.9 2.7 26.3 7.7 34.4 15.8 22.4 22.4 42.7 70.9 39.4 104 20.4-5 48.6-12.4 56.5-16.1 6.2-2.9 16.4-2.7 23.9-1.5 8.2 1.3 18.8 4.4 22.8 12.2 2.6 5.1 4.3 15.3-14.3 25.6-15.4 8.7-54.4 23.2-79.8 30.8-14.7 4.4-26.6 2.6-35.3 1.3-9.7-1.5-10.4-1-11.5.6-1.8 2.6-1.1 4-.9 4.5 1.6 3.3 9 7.8 24.7 9.3 20.3 1.9 40.4-2.8 56.6-6.6 8.3-1.9 15.5-3.6 21.3-4 12.3-.9 16.9 4.7 18.6 9.5 1.7 4.6 1 9.8-2.2 14.4-10.3 15.1-48 25.7-68.4 26.1h-1.2c-24.9 0-69.4-14.1-84.4-21.6-1.7 21.8 5.5 49.3 15.4 74.2 6-.6 11.6-.5 15.1.2 1.9.4 3.4 1 4.6 1.7 34.5-24.5 42-22.8 45.7-21.9 6.2 1.4 12.9 7.2 14.7 38.6.6 9.7.4 19.6-.4 27.2-.7 6.6-1.9 13-5.2 17.2C425.7 425.4 480 347 480 256c0-123.7-100.3-224-224-224m60.3 179c0 7.7-6.2 14-14 14-7.7-.2-13.9-6.4-14-14.1 0-7.7 6.3-13.9 14-13.9s14 6.2 14 14m-4.2-4.8c0-2-1.6-3.6-3.6-3.6s-3.6 1.6-3.6 3.6 1.6 3.6 3.6 3.6h.1c1.9 0 3.5-1.6 3.5-3.6M512 256c0 141.4-114.6 256-256 256S0 397.4 0 256 114.6 0 256 0s256 114.6 256 256m-21.1 0c0-129.7-105.2-234.9-234.9-234.9S21.1 126.3 21.1 256 126.3 490.9 256 490.9 490.9 385.7 490.9 256m-193.4-94c-17.9-3-20.3 11.8-20.3 11.8s3.9-6.2 17.9-6.4c6.8-.1 15.6 4.9 15.6 4.9s-3.4-8.8-13.2-10.3m-38.2 151.8c7.6 5.3 58.6 22.5 83.9 22s66.9-16 62.3-28.4c-4.5-12.4-45.8 11-88.9 7-31.9-3-37.6-17.3-30.5-27.7 8.8-13.1 25 2.5 51.7-5.5s64.1-22.2 78-30c32-17.8-13.5-25.3-24.2-20.3-10.7 4.9-49.4 14.6-64.5 18.2s-20.7 3.4-38.7 4.5c-18 1.2-43.4 19.8-45 29.6-2.1 12.9 8.1 25.3 15.9 30.6m80.2 141.9c-6.1 2.3-33.7-7.8-47.5-13.2-.4.9-.9 1.6-1.5 2-.5.3-1 .6-1.6.9-.5 1.8-1.2 3.1-2.2 3.8-6.1 4-23.2 6-32.3 4-1.7-.4-3-1-3.9-1.9l.2.2c-15.4 8.5-37.7 20-42.2 17.4-7.1-4.1-8.1-57.5-7.1-70.6.7-9.9 35.5 6.2 52.4 14.6 7.1-6.7 33.9-9.1 35.7-4.7.3.8.7 2.2 1.1 3.9 11-8.1 38.6-27.6 45.9-25.9 9.1 2.1 11.1 66.6 3 69.5M252.1 416c-.2.1-.3.2-.5.3.2-.1.3-.2.5-.3m-2.3 1.7c.2-.2.5-.4.7-.7-.2.3-.4.5-.7.7m1-.8c.2-.2.5-.4.8-.5-.3.2-.6.3-.8.5m-1.6 1.5c.1-.2.3-.4.5-.5-.2.1-.3.3-.5.5m-.4.7c.1-.2.2-.4.3-.5-.1.2-.2.4-.3.5m-.3.8c.1-.2.1-.4.2-.6-.1.2-.2.4-.2.6m-.2 1c0-.3 0-.5.1-.8-.1.3-.1.5-.1.8m2.1 30.3c-3.8-3.7-2.4-11.9-2.2-27-.1 15.1-1.6 23.4 2.2 27m-2.1-27.3v-3z" style="fill:#fff"/><path d="M168.1 96.8c-7.5-3-19.6-8.7-22.9-9 3.2-.6 5.4-2.2 10-2.5-.8.1-1.6.3-2.4.4 4.2.4 14 9.2 17.9 9.8-.7.5-1.6.9-2.6 1.3m27.7 374.4c-11-53.5-44.6-209.7-52.4-252.8-7.6-43-.1-73.7 28.7-89.3-1.3.5-2.5 1-3.5 1.5-29.4 15.5-42.4 51.6-34.6 95 7.2 40.6 37.7 182.1 50.4 242.9 3.8 1.3 7.6 2.5 11.5 3.5zm13-352.9c1.3-.2 2.7-.4 4-.5-19.5-8.7-42.6-12-63.7-9.9 0-3.8 2.8-5.9 6.6-7.3-1.7.3-3.4.7-4.9 1.3-3.7 1.7-6.5 8.1-6.5 11.1 18.1-1.8 45-.6 64.5 5.3" style="opacity:.5;fill:#fff"/></svg>

<?xml version="1.0" encoding="utf-8"?>
<!-- Generator: Adobe Illustrator 28.2.0, SVG Export Plug-In . SVG Version: 6.00 Build 0)  -->
<svg version="1.1" id="Layer_1" xmlns="http://www.w3.org/2000/svg" xmlns:xlink="http://www.w3.org/1999/xlink" x="0px" y="0px"
	 viewBox="0 0 512 512" style="enable-background:new 0 0 512 512;" xml:space="preserve">
<style type="text/css">
	.st0{fill:#FFFFFF;}
	.st1{opacity:0.5;fill:#FFFFFF;}
</style>
<path class="st0" d="M162.7,190.4c0,0-6.3-14.1,10.5-21c16.9-6.8,25.1,4,25.1,4s-12.2-5.5-24.2,1.9
	C162.2,182.8,162.7,190.4,162.7,190.4z M177.4,220.5c0-9,7.3-16.2,16.2-16.2c9,0,16.2,7.3,16.2,16.2c0,9-7.3,16.2-16.2,16.2
	C184.7,236.8,177.5,229.5,177.4,220.5z M196.7,215.1c0,2.3,1.9,4.2,4.2,4.2c2.3,0,4.2-1.9,4.2-4.2c0-2.3-1.9-4.2-4.2-4.2
	C198.6,210.9,196.7,212.8,196.7,215.1z M301.2,455.6c2.9,5.6,6,11.6,9.2,17.7c9-2.2,17.7-5,26.2-8.3
	C331.2,464.9,321.3,462.9,301.2,455.6z M256,32C132.3,32,32,132.3,32,256c0,98.6,63.8,182.4,152.4,212.3
	c-12.7-60.9-43.2-202.1-50.4-242.7c-7.8-43.4,5.2-79.5,34.6-95c1-0.5,2.2-1,3.4-1.5c0.3-0.1,0.5-0.3,0.8-0.4
	c10.2-5.3,24.5-9.1,40-10.9c-1.3,0.1-2.7,0.3-4,0.5c-19.5-5.9-46.4-7.1-64.5-5.3c0-3,2.8-9.4,6.5-11.1c1.4-0.6,3-1,4.6-1.2
	c4.5-1.8,10.4-2.6,14.1-4.5c-0.4,0.2-0.9,0.4-1.4,0.6c-7.5-3-19.6-8.7-22.9-9c3.2-0.6,5.4-2.2,9.9-2.5c25.9-4.1,53.6,0.8,76.1,12.8
	c12.3,6.5,20.9,13.5,26.3,20.9c13.9,2.7,26.3,7.7,34.4,15.8c22.4,22.4,42.7,70.9,39.4,104c20.4-5,48.6-12.4,56.5-16.1
	c6.2-2.9,16.4-2.7,23.9-1.5c8.2,1.3,18.8,4.4,22.8,12.2c2.6,5.1,4.3,15.3-14.3,25.6c-15.4,8.7-54.4,23.2-79.8,30.8
	c-14.7,4.4-26.6,2.6-35.3,1.3c-9.7-1.5-10.4-1-11.5,0.6c-1.8,2.6-1.1,4-0.9,4.5c1.6,3.3,9,7.8,24.7,9.3c20.3,1.9,40.4-2.8,56.6-6.6
	c8.3-1.9,15.5-3.6,21.3-4c12.3-0.9,16.9,4.7,18.6,9.5c1.7,4.6,1,9.8-2.2,14.4c-10.3,15.1-48,25.7-68.4,26.1c-0.4,0-0.8,0-1.2,0
	c-24.9,0-69.4-14.1-84.4-21.6c-1.7,21.8,5.5,49.3,15.4,74.2c6-0.6,11.6-0.5,15.1,0.2c1.9,0.4,3.4,1,4.6,1.7
	c34.5-24.5,42-22.8,45.7-21.9c6.2,1.4,12.9,7.2,14.7,38.6c0.6,9.7,0.4,19.6-0.4,27.2c-0.7,6.6-1.9,13-5.2,17.2
	C425.7,425.4,480,347,480,256C480,132.3,379.7,32,256,32z M316.3,211c0,7.7-6.2,14-14,14c-7.7-0.2-13.9-6.4-14-14.1
	c0-7.7,6.3-13.9,14-13.9S316.3,203.2,316.3,211z M312.1,206.2c0-2-1.6-3.6-3.6-3.6s-3.6,1.6-3.6,3.6s1.6,3.6,3.6,3.6h0.1
	C310.5,209.8,312.1,208.2,312.1,206.2z M512,256c0,141.4-114.6,256-256,256S0,397.4,0,256S114.6,0,256,0S512,114.6,512,256z
	 M490.9,256c0-129.7-105.2-234.9-234.9-234.9S21.1,126.3,21.1,256S126.3,490.9,256,490.9S490.9,385.7,490.9,256z M297.5,162
	c-17.9-3-20.3,11.8-20.3,11.8s3.9-6.2,17.9-6.4c6.8-0.1,15.6,4.9,15.6,4.9S307.3,163.5,297.5,162z M259.3,313.8
	c7.6,5.3,58.6,22.5,83.9,22s66.9-16,62.3-28.4c-4.5-12.4-45.8,11-88.9,7c-31.9-3-37.6-17.3-30.5-27.7c8.8-13.1,25,2.5,51.7-5.5
	s64.1-22.2,78-30c32-17.8-13.5-25.3-24.2-20.3c-10.7,4.9-49.4,14.6-64.5,18.2s-20.7,3.4-38.7,4.5c-18,1.2-43.4,19.8-45,29.6
	C241.3,296.1,251.5,308.5,259.3,313.8z M339.5,455.7c-6.1,2.3-33.7-7.8-47.5-13.2c-0.4,0.9-0.9,1.6-1.5,2c-0.5,0.3-1,0.6-1.6,0.9
	c-0.5,1.8-1.2,3.1-2.2,3.8c-6.1,4-23.2,6-32.3,4c-1.7-0.4-3-1-3.9-1.9c0.1,0.1,0.2,0.2,0.2,0.2c-15.4,8.5-37.7,20-42.2,17.4
	c-7.1-4.1-8.1-57.5-7.1-70.6c0.7-9.9,35.5,6.2,52.4,14.6c7.1-6.7,33.9-9.1,35.7-4.7c0.3,0.8,0.7,2.2,1.1,3.9
	c11-8.1,38.6-27.6,45.9-25.9C345.6,388.3,347.6,452.8,339.5,455.7z M252.1,416c-0.2,0.1-0.3,0.2-0.5,0.3
	C251.8,416.2,251.9,416.1,252.1,416C252.1,416,252.1,416,252.1,416z M249.8,417.7c0.2-0.2,0.5-0.4,0.7-0.7
	C250.3,417.3,250.1,417.5,249.8,417.7z M250.8,416.9c0.2-0.2,0.5-0.4,0.8-0.5C251.3,416.6,251,416.7,250.8,416.9z M249.2,418.4
	c0.1-0.2,0.3-0.4,0.5-0.5C249.5,418,249.4,418.2,249.2,418.4z M248.8,419.1c0.1-0.2,0.2-0.4,0.3-0.5
	C249,418.8,248.9,419,248.8,419.1z M248.5,419.9c0.1-0.2,0.1-0.4,0.2-0.6C248.6,419.5,248.5,419.7,248.5,419.9z M248.3,420.9
	c0-0.3,0-0.5,0.1-0.8C248.3,420.4,248.3,420.6,248.3,420.9z M250.4,451.2c-3.8-3.7-2.4-11.9-2.2-27
	C248.1,439.3,246.6,447.6,250.4,451.2z M248.3,423.9c0-1,0-1.9,0-3C248.3,421.9,248.3,422.9,248.3,423.9z"/>
<path class="st1" d="M168.1,96.8c-7.5-3-19.6-8.7-22.9-9c3.2-0.6,5.4-2.2,10-2.5c-0.8,0.1-1.6,0.3-2.4,0.4c4.2,0.4,14,9.2,17.9,9.8
	C170,96,169.1,96.4,168.1,96.8z M195.8,471.2L195.8,471.2c-11-53.5-44.6-209.7-52.4-252.8c-7.6-43-0.1-73.7,28.7-89.3
	c-1.3,0.5-2.5,1-3.5,1.5c-29.4,15.5-42.4,51.6-34.6,95c7.2,40.6,37.7,182.1,50.4,242.9c3.8,1.3,7.6,2.5,11.5,3.5L195.8,471.2z
	 M208.8,118.3c1.3-0.2,2.7-0.4,4-0.5c-19.5-8.7-42.6-12-63.7-9.9c0-3.8,2.8-5.9,6.6-7.3c-1.7,0.3-3.4,0.7-4.9,1.3
	c-3.7,1.7-6.5,8.1-6.5,11.1C162.4,111.2,189.3,112.4,208.8,118.3z"/>
</svg>
